src/assets/images/logo.svg

<svg fill="#FFF" height="7" viewBox="0 0 7 7" width="7" xmlns="http://www.w3.org/2000/svg"><path d="M0 0h24v24H0z" fill="none"/><path d="M3.5 0C1.6 0 0 1.6 0 3.5S1.6 7 3.5 7 7 5.4 7 3.5 5.4 0 3.5 0zm1.9 5.2l-.8.6-1.1-1.5-1.1 1.5-.8-.6 1.1-1.4L1 3.2l.3-.9 1.7.5V1h1v1.8l1.7-.6.3 1-1.7.6 1.1 1.4z"/></svg>

<svg fill="#FFFFFF" height="7" viewBox="0 0 7 7" width="7" xmlns="http://www.w3.org/2000/svg">
    <path d="M0 0h24v24H0z" fill="none"/>
    <path d="M3.5,0C1.6,0,0,1.6,0,3.5S1.6,7,3.5,7S7,5.4,7,3.5S5.4,0,3.5,0z M5.4,5.2L4.6,5.8L3.5,4.3
	L2.4,5.8L1.6,5.2l1.1-1.4L1,3.2l0.3-0.9L3,2.8V1h1v1.8l1.7-0.6l0.3,1L4.3,3.8L5.4,5.2z"/>
</svg>
